assets/ui/hunger-icon-half.svg

<svg clip-rule="evenodd" fill-rule="evenodd" stroke-linecap="round" stroke-linejoin="round" stroke-miterlimit="1.5" viewBox="0 0 2048 2048" xmlns="http://www.w3.org/2000/svg" xmlns:xlink="http://www.w3.org/1999/xlink"><clipPath id="a"><path clip-rule="evenodd" d="m946.904 1292.89c-212.355 75.89-446.744 76.5-666.333.03l166.107-562.882 27.712 71.953 208.862 277.419z"/></clipPath><clipPath id="b"><path clip-rule="evenodd" d="m1083.67 1361.74 193 89.88 156.67 24.98c-75.54 56.17-156.93 105.17-243.21 145.98-330.083 156.11-707.195 180.81-1054.819 69.08l86.053-267.73c279.64 89.89 583.001 70.02 848.526-55.57 4.61-2.18 9.2-4.38 13.78-6.62z"/></clipPath><path d="m946.904 1292.89c-212.355 75.89-446.744 76.5-666.333.03l166.107-562.882 27.712 71.953 208.862 277.419z" fill="#eb5454"/><g clip-path="url(#a)"><path d="m764.637 1145.31c41.629 56.29 103.218 53.66 182.267 147.58-267.653 67.89-105.893 15.57-379.275 57.15 31.578-39.93-340.093 34.34-125.363-52.55 254.986-85.21 121.28-33.38 322.371-152.18z" fill="#dc3939"/><path d="m426.446 1141.61s29.791 14.63 36.588 40.51 1.439 49.74-11.957 53.26-29.79-14.63-36.587-40.51 11.956-53.26 11.956-53.26z"/><path d="m609.643 1163.77s33.148 1.69 49.609 22.78c16.461 21.1 20.956 45.13 10.038 53.66-10.919 8.52-33.146-1.69-49.607-22.78-16.461-21.1-10.04-53.66-10.04-53.66z"/><path d="m493.228 964.197s29.791 14.633 36.588 40.513 1.439 49.74-11.957 53.26-29.79-14.63-36.587-40.51 11.956-53.263 11.956-53.263z"/></g><path d="m946.904 1292.89c-212.355 75.89-446.744 76.5-666.333.03l166.107-562.882 27.712 71.953 208.862 277.419z" fill="none" stroke="#000" stroke-width="47.34"/><path d="m1083.67 1361.74 193 89.88 156.67 24.98c-75.54 56.17-156.93 105.17-243.21 145.98-330.083 156.11-707.195 180.81-1054.819 69.08l86.053-267.73c279.64 89.89 583.001 70.02 848.526-55.57 4.61-2.18 9.2-4.38 13.78-6.62z" fill="#a5ff96"/><g clip-path="url(#b)"><path d="m1186.04 1409.41c-5.63 40.49 60.9 10.43 145.72 50.99 86.39 41.32 110.33-22.73 50.8 52.28-473.939 258.9-59.94 73.37-534.089 221.78-91.385 28.6-131.157 18.66-223.862 37.88-108.705-21.24-378.468-2.89-287.083-31.5 408.155 10.63 575.259 12.83 848.514-331.43z" fill="#6eca75"/></g><path d="m1083.67 1361.74 193 89.88 156.67 24.98c-75.54 56.17-156.93 105.17-243.21 145.98-330.083 156.11-707.195 180.81-1054.819 69.08l86.053-267.73c279.64 89.89 583.001 70.02 848.526-55.57 4.61-2.18 9.2-4.38 13.78-6.62z" fill="none" stroke="#000" stroke-width="36.04"/></svg>

<?xml version="1.0" encoding="UTF-8" standalone="no"?>
<!DOCTYPE svg PUBLIC "-//W3C//DTD SVG 1.1//EN" "http://www.w3.org/Graphics/SVG/1.1/DTD/svg11.dtd">
<svg width="100%" height="100%" viewBox="0 0 2048 2048" version="1.1" xmlns="http://www.w3.org/2000/svg" xmlns:xlink="http://www.w3.org/1999/xlink" xml:space="preserve" xmlns:serif="http://www.serif.com/" style="fill-rule:evenodd;clip-rule:evenodd;stroke-linecap:round;stroke-linejoin:round;stroke-miterlimit:1.5;">
    <path d="M946.904,1292.89C734.549,1368.78 500.16,1369.39 280.571,1292.92L446.678,730.038L474.39,801.991L683.252,1079.41L946.904,1292.89Z" style="fill:rgb(235,84,84);"/>
    <g>
        <clipPath id="_clip1">
            <path d="M946.904,1292.89C734.549,1368.78 500.16,1369.39 280.571,1292.92L446.678,730.038L474.39,801.991L683.252,1079.41L946.904,1292.89Z"/>
        </clipPath>
        <g clip-path="url(#_clip1)">
            <path d="M764.637,1145.31C806.266,1201.6 867.855,1198.97 946.904,1292.89C679.251,1360.78 841.011,1308.46 567.629,1350.04C599.207,1310.11 227.536,1384.38 442.266,1297.49C697.252,1212.28 563.546,1264.11 764.637,1145.31Z" style="fill:rgb(220,57,57);"/>
            <g>
                <path d="M426.446,1141.61C426.446,1141.61 456.237,1156.24 463.034,1182.12C469.831,1208 464.473,1231.86 451.077,1235.38C437.681,1238.9 421.287,1220.75 414.49,1194.87C407.693,1168.99 426.446,1141.61 426.446,1141.61Z"/>
            </g>
            <g>
                <path d="M609.643,1163.77C609.643,1163.77 642.791,1165.46 659.252,1186.55C675.713,1207.65 680.208,1231.68 669.29,1240.21C658.371,1248.73 636.144,1238.52 619.683,1217.43C603.222,1196.33 609.643,1163.77 609.643,1163.77Z"/>
            </g>
            <g>
                <path d="M493.228,964.197C493.228,964.197 523.019,978.83 529.816,1004.71C536.613,1030.59 531.255,1054.45 517.859,1057.97C504.463,1061.49 488.069,1043.34 481.272,1017.46C474.475,991.58 493.228,964.197 493.228,964.197Z"/>
            </g>
        </g>
    </g>
    <path d="M946.904,1292.89C734.549,1368.78 500.16,1369.39 280.571,1292.92L446.678,730.038L474.39,801.991L683.252,1079.41L946.904,1292.89Z" style="fill:none;stroke:black;stroke-width:47.34px;"/>
    <path d="M1083.67,1361.74L1276.67,1451.62L1433.34,1476.6C1357.8,1532.77 1276.41,1581.77 1190.13,1622.58C860.047,1778.69 482.935,1803.39 135.311,1691.66L221.364,1423.93C501.004,1513.82 804.365,1493.95 1069.89,1368.36C1074.5,1366.18 1079.09,1363.98 1083.67,1361.74Z" style="fill:rgb(165,255,150);"/>
    <g>
        <clipPath id="_clip2">
            <path d="M1083.67,1361.74L1276.67,1451.62L1433.34,1476.6C1357.8,1532.77 1276.41,1581.77 1190.13,1622.58C860.047,1778.69 482.935,1803.39 135.311,1691.66L221.364,1423.93C501.004,1513.82 804.365,1493.95 1069.89,1368.36C1074.5,1366.18 1079.09,1363.98 1083.67,1361.74Z"/>
        </clipPath>
        <g clip-path="url(#_clip2)">
            <path d="M1186.04,1409.41C1180.41,1449.9 1246.94,1419.84 1331.76,1460.4C1418.15,1501.72 1442.09,1437.67 1382.56,1512.68C908.621,1771.58 1322.62,1586.05 848.471,1734.46C757.086,1763.06 717.314,1753.12 624.609,1772.34C515.904,1751.1 246.141,1769.45 337.526,1740.84C745.681,1751.47 912.785,1753.67 1186.04,1409.41Z" style="fill:rgb(110,202,117);"/>
        </g>
    </g>
    <path d="M1083.67,1361.74L1276.67,1451.62L1433.34,1476.6C1357.8,1532.77 1276.41,1581.77 1190.13,1622.58C860.047,1778.69 482.935,1803.39 135.311,1691.66L221.364,1423.93C501.004,1513.82 804.365,1493.95 1069.89,1368.36C1074.5,1366.18 1079.09,1363.98 1083.67,1361.74Z" style="fill:none;stroke:black;stroke-width:36.04px;"/>
</svg>
